src/assets/icons/crown.svg

<svg width="14" height="14" viewBox="0 0 14 14" fill="none" xmlns="http://www.w3.org/2000/svg">
<g id="crown">
<g clip-path="url(#clip0_295_4709)">
<path id="Vector" fill-rule="evenodd" clip-rule="evenodd" d="M5.5469 4.99957L7 2.67462L8.4531 4.99957C8.66316 5.33568 9.11414 5.4232 9.43468 5.19008L12.5552 2.92063L11.3566 9.21318C11.3385 9.30799 11.2556 9.37659 11.1591 9.37659H2.84088C2.74436 9.37659 2.66146 9.30799 2.6434 9.21318L1.44482 2.92063L4.56532 5.19008C4.88586 5.4232 5.33684 5.33568 5.5469 4.99957ZM7.57958 1.32624C7.31189 0.89793 6.68811 0.897925 6.42042 1.32624L4.82128 3.88486L1.08632 1.16853C0.585407 0.804227 -0.102971 1.24072 0.0129233 1.84916L1.45858 9.43886C1.585 10.1025 2.16526 10.5827 2.84088 10.5827H11.1591C11.8347 10.5827 12.415 10.1025 12.5414 9.43886L13.9871 1.84916C14.103 1.24072 13.4146 0.804225 12.9137 1.16853L9.17872 3.88486L7.57958 1.32624ZM2.17549 11.7888C1.84243 11.7888 1.57243 12.0588 1.57243 12.3919C1.57243 12.725 1.84243 12.995 2.17549 12.995H11.8245C12.1576 12.995 12.4276 12.725 12.4276 12.3919C12.4276 12.0588 12.1576 11.7888 11.8245 11.7888H2.17549Z" fill="black"/>
</g>
</g>
<defs>
<clipPath id="clip0_295_4709">
<rect width="14" height="14" fill="white"/>
</clipPath>
</defs>
</svg>

<svg xmlns="http://www.w3.org/2000/svg" fill="none" viewBox="0 0 14 14"><g clip-path="url(#a)"><path fill="#000" fill-rule="evenodd" d="M5.547 5 7 2.675 8.453 5c.21.336.661.423.982.19l3.12-2.27-1.198 6.293a.2.2 0 0 1-.198.164H2.841a.2.2 0 0 1-.198-.164L1.445 2.921l3.12 2.27c.32.232.772.145.982-.191M7.58 1.326a.683.683 0 0 0-1.16 0L4.821 3.885 1.086 1.169a.683.683 0 0 0-1.073.68l1.446 7.59a1.41 1.41 0 0 0 1.382 1.144h8.318c.676 0 1.256-.48 1.382-1.144l1.446-7.59a.683.683 0 0 0-1.073-.68L9.179 3.885zM2.175 11.79a.603.603 0 0 0 0 1.206h9.65a.603.603 0 1 0 0-1.206z" clip-rule="evenodd"/></g><defs><clipPath id="a"><path fill="#fff" d="M0 0h14v14H0z"/></clipPath></defs></svg>
